documentation/public/assets/images/02-switch-when-to-use.svg

<svg width="672" height="116" viewBox="0 0 672 116" fill="none" xmlns="http://www.w3.org/2000/svg">
<rect width="672" height="115.148" fill="#F6F6F6"/>
<path d="M295.14 40.0666C295.096 39.6588 294.912 39.3413 294.589 39.1141C294.268 38.8869 293.851 38.7733 293.337 38.7733C292.976 38.7733 292.667 38.8277 292.408 38.9367C292.15 39.0456 291.952 39.1935 291.815 39.3802C291.678 39.567 291.608 39.7802 291.605 40.0199C291.605 40.2191 291.65 40.3918 291.741 40.5381C291.834 40.6844 291.96 40.8089 292.119 40.9117C292.278 41.0113 292.453 41.0953 292.646 41.1638C292.839 41.2323 293.034 41.2898 293.23 41.3365L294.127 41.5606C294.488 41.6447 294.835 41.7583 295.168 41.9015C295.504 42.0447 295.804 42.2252 296.069 42.4431C296.337 42.661 296.548 42.924 296.704 43.2321C296.859 43.5403 296.937 43.9014 296.937 44.3153C296.937 44.8756 296.794 45.369 296.508 45.7954C296.221 46.2187 295.807 46.5502 295.266 46.7899C294.727 47.0265 294.075 47.1447 293.309 47.1447C292.566 47.1447 291.92 47.0296 291.372 46.7992C290.827 46.5689 290.401 46.2327 290.093 45.7907C289.788 45.3487 289.623 44.8103 289.598 44.1753H291.302C291.327 44.5083 291.429 44.7854 291.61 45.0063C291.79 45.2273 292.025 45.3923 292.315 45.5013C292.608 45.6102 292.934 45.6647 293.295 45.6647C293.672 45.6647 294.002 45.6086 294.285 45.4966C294.572 45.3814 294.796 45.2227 294.958 45.0204C295.119 44.8149 295.202 44.5752 295.205 44.3013C295.202 44.0523 295.129 43.8469 294.986 43.685C294.842 43.5201 294.642 43.3831 294.383 43.2742C294.128 43.1621 293.829 43.0625 293.487 42.9753L292.399 42.6952C291.612 42.4929 290.989 42.1863 290.531 41.7754C290.077 41.3614 289.85 40.8121 289.85 40.1273C289.85 39.5639 290.002 39.0705 290.307 38.6472C290.615 38.2239 291.034 37.8955 291.563 37.6621C292.092 37.4255 292.692 37.3072 293.361 37.3072C294.039 37.3072 294.634 37.4255 295.144 37.6621C295.658 37.8955 296.061 38.2208 296.354 38.6379C296.646 39.0519 296.797 39.5281 296.807 40.0666H295.14ZM298.482 47V37.4379H304.701V38.89H300.214V41.4859H304.378V42.938H300.214V45.5479H304.738V47H298.482ZM314.326 37.4379V47H312.785L308.279 40.4868H308.2V47H306.468V37.4379H308.018L312.519 43.9558H312.603V37.4379H314.326ZM319.4 47V39.8285H321.038V41.0237H321.113C321.244 40.6097 321.468 40.2907 321.786 40.0666C322.106 39.8394 322.472 39.7257 322.883 39.7257C322.976 39.7257 323.08 39.7304 323.196 39.7397C323.314 39.746 323.412 39.7569 323.49 39.7724V41.3272C323.418 41.3023 323.304 41.2805 323.149 41.2618C322.996 41.24 322.848 41.2291 322.705 41.2291C322.397 41.2291 322.12 41.2961 321.874 41.4299C321.631 41.5606 321.44 41.7427 321.3 41.9762C321.16 42.2096 321.09 42.4789 321.09 42.7839V47H319.4ZM327.492 47.1401C326.773 47.1401 326.152 46.9907 325.629 46.6918C325.109 46.3899 324.709 45.9635 324.429 45.4125C324.149 44.8585 324.009 44.2064 324.009 43.4562C324.009 42.7186 324.149 42.0711 324.429 41.514C324.713 40.9537 325.108 40.5179 325.615 40.2066C326.123 39.8923 326.719 39.7351 327.403 39.7351C327.845 39.7351 328.263 39.8067 328.655 39.9499C329.05 40.0899 329.399 40.3078 329.701 40.6035C330.006 40.8992 330.245 41.2758 330.42 41.7334C330.594 42.1878 330.681 42.7294 330.681 43.3582V43.8765H324.803V42.7372H329.061C329.058 42.4135 328.988 42.1256 328.851 41.8735C328.714 41.6182 328.522 41.4175 328.277 41.2712C328.034 41.1249 327.751 41.0517 327.427 41.0517C327.081 41.0517 326.778 41.1358 326.516 41.3039C326.255 41.4688 326.051 41.6867 325.905 41.9575C325.762 42.2252 325.688 42.5193 325.685 42.8399V43.8344C325.685 44.2515 325.762 44.6095 325.914 44.9083C326.067 45.204 326.28 45.4312 326.554 45.59C326.828 45.7456 327.148 45.8234 327.516 45.8234C327.761 45.8234 327.984 45.7892 328.183 45.7207C328.382 45.6491 328.555 45.5448 328.701 45.4079C328.848 45.2709 328.958 45.1013 329.033 44.899L330.611 45.0764C330.511 45.4935 330.322 45.8577 330.041 46.1689C329.764 46.4771 329.41 46.7167 328.977 46.8879C328.544 47.056 328.049 47.1401 327.492 47.1401ZM337.779 41.7241L336.238 41.8921C336.195 41.7365 336.118 41.5902 336.01 41.4533C335.904 41.3163 335.761 41.2058 335.58 41.1218C335.399 41.0377 335.178 40.9957 334.917 40.9957C334.565 40.9957 334.27 41.072 334.03 41.2245C333.793 41.377 333.677 41.5747 333.68 41.8174C333.677 42.026 333.753 42.1956 333.909 42.3264C334.067 42.4571 334.329 42.5645 334.693 42.6485L335.916 42.91C336.595 43.0563 337.099 43.2882 337.429 43.6057C337.762 43.9231 337.93 44.3387 337.933 44.8523C337.93 45.3036 337.798 45.702 337.536 46.0475C337.278 46.3899 336.918 46.6576 336.458 46.8506C335.997 47.0436 335.468 47.1401 334.87 47.1401C333.993 47.1401 333.286 46.9564 332.751 46.5891C332.215 46.2187 331.896 45.7036 331.793 45.0437L333.442 44.885C333.516 45.2087 333.675 45.453 333.918 45.618C334.161 45.783 334.477 45.8654 334.866 45.8654C335.267 45.8654 335.589 45.783 335.832 45.618C336.078 45.453 336.201 45.2491 336.201 45.0063C336.201 44.8009 336.122 44.6313 335.963 44.4974C335.807 44.3636 335.564 44.2609 335.234 44.1893L334.011 43.9325C333.323 43.7893 332.814 43.5481 332.484 43.2088C332.155 42.8664 331.991 42.4337 331.994 41.9108C331.991 41.4688 332.111 41.086 332.354 40.7623C332.6 40.4354 332.94 40.1833 333.376 40.0059C333.815 39.8253 334.321 39.7351 334.894 39.7351C335.734 39.7351 336.396 39.9141 336.878 40.272C337.364 40.63 337.664 41.114 337.779 41.7241ZM342.908 39.8285V41.1358H338.785V39.8285H342.908ZM339.803 38.1103H341.493V44.8429C341.493 45.0702 341.527 45.2445 341.596 45.3659C341.668 45.4841 341.761 45.5651 341.876 45.6086C341.991 45.6522 342.119 45.674 342.259 45.674C342.365 45.674 342.461 45.6662 342.548 45.6507C342.639 45.6351 342.707 45.6211 342.754 45.6086L343.039 46.93C342.948 46.9611 342.819 46.9953 342.651 47.0327C342.486 47.07 342.284 47.0918 342.044 47.098C341.621 47.1105 341.24 47.0467 340.9 46.9066C340.561 46.7634 340.292 46.5424 340.093 46.2436C339.896 45.9448 339.8 45.5713 339.803 45.1231V38.1103ZM347.657 47V37.4379H349.348V41.0144H349.418C349.505 40.8401 349.628 40.6549 349.787 40.4588C349.945 40.2596 350.16 40.0899 350.431 39.9499C350.702 39.8067 351.047 39.7351 351.467 39.7351C352.021 39.7351 352.521 39.8767 352.966 40.16C353.414 40.4401 353.769 40.8556 354.031 41.4066C354.295 41.9544 354.427 42.6267 354.427 43.4236C354.427 44.2111 354.298 44.8803 354.04 45.4312C353.782 45.9822 353.43 46.4024 352.985 46.6918C352.54 46.9813 352.035 47.1261 351.472 47.1261C351.061 47.1261 350.72 47.0576 350.45 46.9206C350.179 46.7837 349.961 46.6187 349.796 46.4257C349.634 46.2296 349.508 46.0444 349.418 45.8701H349.32V47H347.657ZM349.315 43.4142C349.315 43.878 349.38 44.2842 349.511 44.6328C349.645 44.9814 349.836 45.2538 350.085 45.4499C350.337 45.6429 350.642 45.7394 351 45.7394C351.374 45.7394 351.687 45.6398 351.939 45.4406C352.191 45.2382 352.381 44.9628 352.509 44.6142C352.639 44.2624 352.705 43.8625 352.705 43.4142C352.705 42.9691 352.641 42.5738 352.513 42.2283C352.386 41.8828 352.196 41.612 351.944 41.4159C351.691 41.2198 351.377 41.1218 351 41.1218C350.639 41.1218 350.333 41.2167 350.081 41.4066C349.829 41.5964 349.637 41.8626 349.506 42.205C349.379 42.5474 349.315 42.9504 349.315 43.4142ZM355.864 47V39.8285H357.503V41.0237H357.578C357.709 40.6097 357.933 40.2907 358.25 40.0666C358.571 39.8394 358.937 39.7257 359.347 39.7257C359.441 39.7257 359.545 39.7304 359.66 39.7397C359.779 39.746 359.877 39.7569 359.954 39.7724V41.3272C359.883 41.3023 359.769 41.2805 359.614 41.2618C359.461 41.24 359.313 41.2291 359.17 41.2291C358.862 41.2291 358.585 41.2961 358.339 41.4299C358.096 41.5606 357.905 41.7427 357.765 41.9762C357.625 42.2096 357.555 42.4789 357.555 42.7839V47H355.864ZM363.957 47.1401C363.238 47.1401 362.617 46.9907 362.094 46.6918C361.574 46.3899 361.174 45.9635 360.894 45.4125C360.614 44.8585 360.474 44.2064 360.474 43.4562C360.474 42.7186 360.614 42.0711 360.894 41.514C361.177 40.9537 361.573 40.5179 362.08 40.2066C362.587 39.8923 363.183 39.7351 363.868 39.7351C364.31 39.7351 364.727 39.8067 365.119 39.9499C365.515 40.0899 365.863 40.3078 366.165 40.6035C366.47 40.8992 366.71 41.2758 366.884 41.7334C367.059 42.1878 367.146 42.7294 367.146 43.3582V43.8765H361.268V42.7372H365.526C365.523 42.4135 365.452 42.1256 365.316 41.8735C365.179 41.6182 364.987 41.4175 364.741 41.2712C364.498 41.1249 364.215 41.0517 363.891 41.0517C363.546 41.0517 363.242 41.1358 362.981 41.3039C362.72 41.4688 362.516 41.6867 362.369 41.9575C362.226 42.2252 362.153 42.5193 362.15 42.8399V43.8344C362.15 44.2515 362.226 44.6095 362.379 44.9083C362.531 45.204 362.744 45.4312 363.018 45.59C363.292 45.7456 363.613 45.8234 363.98 45.8234C364.226 45.8234 364.449 45.7892 364.648 45.7207C364.847 45.6491 365.02 45.5448 365.166 45.4079C365.312 45.2709 365.423 45.1013 365.498 44.899L367.076 45.0764C366.976 45.4935 366.786 45.8577 366.506 46.1689C366.229 46.4771 365.874 46.7167 365.442 46.8879C365.009 47.056 364.514 47.1401 363.957 47.1401ZM370.639 47.1447C370.185 47.1447 369.776 47.0638 369.411 46.902C369.05 46.737 368.764 46.4942 368.552 46.1736C368.344 45.853 368.239 45.4577 368.239 44.9877C368.239 44.583 368.314 44.2484 368.464 43.9838C368.613 43.7193 368.817 43.5076 369.075 43.3489C369.334 43.1901 369.625 43.0703 369.948 42.9894C370.275 42.9053 370.613 42.8446 370.961 42.8073C371.382 42.7637 371.723 42.7248 371.984 42.6905C372.245 42.6532 372.435 42.5972 372.554 42.5225C372.675 42.4446 372.736 42.3248 372.736 42.1629V42.1349C372.736 41.7832 372.631 41.5108 372.423 41.3179C372.214 41.1249 371.914 41.0284 371.522 41.0284C371.108 41.0284 370.779 41.1187 370.537 41.2992C370.297 41.4797 370.135 41.6929 370.051 41.9388L368.473 41.7147C368.597 41.279 368.803 40.9148 369.089 40.6222C369.376 40.3265 369.726 40.1055 370.14 39.9592C370.554 39.8098 371.011 39.7351 371.512 39.7351C371.858 39.7351 372.202 39.7755 372.544 39.8565C372.887 39.9374 373.199 40.0712 373.483 40.258C373.766 40.4416 373.993 40.6922 374.164 41.0097C374.339 41.3272 374.426 41.7241 374.426 42.2003V47H372.801V46.0148H372.745C372.642 46.2141 372.498 46.4008 372.311 46.5751C372.127 46.7463 371.895 46.8848 371.615 46.9907C371.338 47.0934 371.013 47.1447 370.639 47.1447ZM371.078 45.9028C371.417 45.9028 371.712 45.8359 371.961 45.702C372.21 45.5651 372.401 45.3845 372.535 45.1604C372.672 44.9363 372.74 44.692 372.74 44.4274V43.5823C372.687 43.6259 372.597 43.6664 372.47 43.7037C372.345 43.7411 372.205 43.7737 372.049 43.8018C371.894 43.8298 371.74 43.8547 371.587 43.8765C371.435 43.8982 371.302 43.9169 371.19 43.9325C370.938 43.9667 370.712 44.0228 370.513 44.1006C370.314 44.1784 370.157 44.2873 370.042 44.4274C369.927 44.5644 369.869 44.7418 369.869 44.9597C369.869 45.2709 369.983 45.5059 370.21 45.6647C370.437 45.8234 370.726 45.9028 371.078 45.9028ZM377.666 44.7496L377.661 42.7092H377.932L380.51 39.8285H382.484L379.314 43.3582H378.964L377.666 44.7496ZM376.125 47V37.4379H377.816V47H376.125ZM380.626 47L378.292 43.7364L379.431 42.5458L382.648 47H380.626Z" fill="#333333"/>
<rect x="289" y="65.9297" width="32.8696" height="16.4348" rx="8.21739" fill="#0F67F5"/>
<circle cx="313.652" cy="74.1472" r="6.57391" fill="white"/>
<path d="M332.744 78.1475V69.7807H337.793V70.6794H333.757V73.5065H337.532V74.4053H333.757V77.2487H337.858V78.1475H332.744ZM340.453 74.3726V78.1475H339.489V71.8724H340.42V72.8528H340.502C340.649 72.5342 340.872 72.2782 341.172 72.0848C341.471 71.8887 341.858 71.7907 342.332 71.7907C342.757 71.7907 343.129 71.8778 343.447 72.0521C343.766 72.2237 344.014 72.4852 344.191 72.8365C344.368 73.1851 344.456 73.6263 344.456 74.1602V78.1475H343.492V74.2255C343.492 73.7326 343.364 73.3485 343.108 73.0735C342.852 72.7957 342.501 72.6567 342.054 72.6567C341.746 72.6567 341.471 72.7235 341.229 72.8569C340.989 72.9904 340.8 73.1851 340.661 73.4411C340.522 73.6972 340.453 74.0076 340.453 74.3726ZM348.065 78.2945C347.667 78.2945 347.306 78.2196 346.982 78.0698C346.658 77.9173 346.401 77.6981 346.21 77.4121C346.019 77.1234 345.924 76.7748 345.924 76.3662C345.924 76.0067 345.995 75.7153 346.136 75.492C346.278 75.2659 346.467 75.0889 346.704 74.9609C346.941 74.8329 347.203 74.7376 347.489 74.6749C347.777 74.6095 348.067 74.5578 348.359 74.5197C348.74 74.4706 349.049 74.4339 349.286 74.4094C349.526 74.3821 349.7 74.3372 349.809 74.2745C349.921 74.2119 349.977 74.103 349.977 73.9477V73.915C349.977 73.5119 349.866 73.1987 349.646 72.9754C349.428 72.7521 349.097 72.6404 348.653 72.6404C348.193 72.6404 347.832 72.7412 347.57 72.9427C347.309 73.1443 347.125 73.3594 347.019 73.5882L346.104 73.2614C346.267 72.8801 346.485 72.5832 346.757 72.3708C347.032 72.1556 347.332 72.0058 347.656 71.9214C347.983 71.8342 348.304 71.7907 348.62 71.7907C348.822 71.7907 349.053 71.8152 349.315 71.8642C349.579 71.9105 349.834 72.0072 350.079 72.1543C350.327 72.3013 350.532 72.5233 350.696 72.8202C350.859 73.117 350.941 73.5147 350.941 74.0131V78.1475H349.977V77.2977H349.928C349.862 77.4339 349.753 77.5796 349.601 77.7348C349.448 77.8901 349.245 78.0222 348.992 78.1311C348.739 78.2401 348.43 78.2945 348.065 78.2945ZM348.212 77.4284C348.593 77.4284 348.914 77.3535 349.176 77.2037C349.44 77.0539 349.639 76.8606 349.772 76.6236C349.909 76.3867 349.977 76.1375 349.977 75.876V74.9936C349.936 75.0426 349.846 75.0875 349.707 75.1284C349.571 75.1665 349.413 75.2006 349.233 75.2305C349.056 75.2578 348.883 75.2823 348.714 75.3041C348.548 75.3231 348.413 75.3395 348.31 75.3531C348.059 75.3858 347.825 75.4389 347.607 75.5124C347.392 75.5832 347.218 75.6908 347.084 75.8352C346.954 75.9768 346.888 76.1702 346.888 76.4153C346.888 76.7503 347.012 77.0036 347.26 77.1751C347.51 77.344 347.828 77.4284 348.212 77.4284ZM352.831 78.1475V69.7807H353.795V72.8692H353.877C353.948 72.7602 354.046 72.6213 354.171 72.4525C354.299 72.2809 354.482 72.1284 354.719 71.9949C354.958 71.8587 355.283 71.7907 355.691 71.7907C356.219 71.7907 356.685 71.9227 357.088 72.1869C357.491 72.4511 357.806 72.8256 358.032 73.3104C358.258 73.7952 358.371 74.3671 358.371 75.0263C358.371 75.6908 358.258 76.2668 358.032 76.7544C357.806 77.2392 357.493 77.615 357.092 77.8819C356.692 78.1461 356.23 78.2782 355.707 78.2782C355.304 78.2782 354.982 78.2115 354.739 78.078C354.497 77.9418 354.31 77.788 354.179 77.6164C354.049 77.4421 353.948 77.2977 353.877 77.1833H353.763V78.1475H352.831ZM353.779 75.0099C353.779 75.4838 353.849 75.9019 353.987 76.2641C354.126 76.6236 354.329 76.9055 354.596 77.1098C354.863 77.3113 355.19 77.4121 355.577 77.4121C355.98 77.4121 356.316 77.3059 356.586 77.0934C356.858 76.8783 357.062 76.5896 357.199 76.2273C357.337 75.8624 357.407 75.4566 357.407 75.0099C357.407 74.5687 357.339 74.1711 357.203 73.817C357.069 73.4602 356.866 73.1783 356.594 72.9713C356.324 72.7616 355.985 72.6567 355.577 72.6567C355.184 72.6567 354.855 72.7562 354.588 72.955C354.321 73.1511 354.12 73.4262 353.983 73.7802C353.847 74.1316 353.779 74.5415 353.779 75.0099ZM359.846 69.7807H360.81V76.5133C360.81 76.8184 360.844 77.0322 360.912 77.1547C360.98 77.2773 361.12 77.3358 361.333 77.3304C361.447 77.3249 361.532 77.3168 361.586 77.3059C361.643 77.2923 361.695 77.2786 361.741 77.265L361.938 78.0984C361.853 78.1229 361.747 78.1447 361.619 78.1638C361.491 78.1856 361.357 78.1965 361.219 78.1965C360.761 78.1965 360.418 78.0712 360.189 77.8206C359.96 77.5701 359.846 77.2214 359.846 76.7748V69.7807ZM365.454 78.2782C364.849 78.2782 364.328 78.1447 363.889 77.8778C363.454 77.6082 363.117 77.2323 362.88 76.7503C362.646 76.2655 362.529 75.7017 362.529 75.0589C362.529 74.4162 362.646 73.8497 362.88 73.3594C363.117 72.8665 363.447 72.4824 363.869 72.2074C364.294 71.9296 364.789 71.7907 365.356 71.7907C365.683 71.7907 366.006 71.8451 366.324 71.9541C366.643 72.063 366.933 72.24 367.194 72.4852C367.456 72.7276 367.664 73.0489 367.819 73.4493C367.975 73.8497 368.052 74.3426 368.052 74.9282V75.3367H363.215V74.5033H367.072C367.072 74.1493 367.001 73.8333 366.859 73.5555C366.72 73.2777 366.522 73.0585 366.263 72.8978C366.007 72.7371 365.705 72.6567 365.356 72.6567C364.972 72.6567 364.64 72.7521 364.359 72.9427C364.081 73.1307 363.868 73.3758 363.718 73.6781C363.568 73.9804 363.493 74.3045 363.493 74.6504V75.206C363.493 75.6799 363.575 76.0816 363.738 76.4112C363.904 76.738 364.134 76.9872 364.429 77.1588C364.723 77.3277 365.065 77.4121 365.454 77.4121C365.707 77.4121 365.936 77.3767 366.14 77.3059C366.347 77.2323 366.526 77.1234 366.676 76.9791C366.825 76.832 366.941 76.6495 367.023 76.4316L367.954 76.6931C367.856 77.009 367.691 77.2868 367.46 77.5265C367.228 77.7634 366.942 77.9486 366.602 78.0821C366.262 78.2128 365.879 78.2782 365.454 78.2782Z" fill="#1F1F1F"/>
</svg>

<svg width="672" height="116" fill="none" xmlns="http://www.w3.org/2000/svg"><path fill="#F6F6F6" d="M0 0h672v115.15H0z"/><path d="M295.14 40.07a1.29 1.29 0 0 0-.55-.96 2.12 2.12 0 0 0-1.25-.34c-.36 0-.67.06-.93.17-.26.1-.46.25-.6.44a1.08 1.08 0 0 0-.07 1.16c.1.14.22.27.38.37a5.58 5.58 0 0 0 1.11.43l.9.22c.36.08.7.2 1.04.34.33.14.63.33.9.54a2.38 2.38 0 0 1 .87 1.87 2.6 2.6 0 0 1-.43 1.49c-.29.42-.7.75-1.24.99s-1.2.35-1.96.35c-.74 0-1.39-.11-1.94-.34a2.88 2.88 0 0 1-1.28-1c-.3-.45-.47-.99-.5-1.62h1.71c.03.33.13.6.31.83.18.22.41.38.7.5.3.1.62.15.99.15s.7-.05.99-.16c.28-.12.5-.28.67-.48.16-.2.24-.44.25-.72a.91.91 0 0 0-.22-.61c-.15-.17-.35-.3-.6-.42a5.8 5.8 0 0 0-.9-.3l-1.1-.27c-.78-.2-1.4-.51-1.86-.92a2.12 2.12 0 0 1-.68-1.65c0-.57.15-1.06.46-1.48.3-.43.72-.75 1.25-.99a4.36 4.36 0 0 1 1.8-.35c.68 0 1.27.12 1.78.35.52.24.92.56 1.21.98.3.41.45.89.46 1.43h-1.67Zm3.34 6.93v-9.56h6.22v1.45h-4.49v2.6h4.17v1.45h-4.17v2.6h4.53V47h-6.26Zm15.85-9.56V47h-1.54l-4.51-6.51h-.08V47h-1.73v-9.56h1.55l4.5 6.52h.08v-6.52h1.73ZM319.4 47v-7.17h1.64v1.2h.07a1.79 1.79 0 0 1 1.77-1.3 3.95 3.95 0 0 1 .61.04v1.56a3.15 3.15 0 0 0-.79-.1c-.3 0-.58.07-.83.2a1.47 1.47 0 0 0-.78 1.35V47h-1.69Zm8.1.14a3.7 3.7 0 0 1-1.87-.45c-.52-.3-.92-.73-1.2-1.28a4.29 4.29 0 0 1-.42-1.95c0-.74.14-1.39.42-1.95a3.19 3.19 0 0 1 2.97-1.77c.45 0 .86.07 1.25.21a2.86 2.86 0 0 1 1.77 1.78c.17.46.26 1 .26 1.63v.52h-5.88v-1.14h4.26c0-.33-.07-.61-.2-.87a1.53 1.53 0 0 0-1.43-.82 1.7 1.7 0 0 0-1.53.91c-.14.27-.21.56-.21.88v1c0 .41.07.77.22 1.07.16.3.37.52.64.68.28.16.6.23.97.23.24 0 .46-.03.66-.1s.38-.18.52-.31c.15-.14.26-.3.33-.51l1.58.18c-.1.41-.29.78-.57 1.09-.28.3-.63.55-1.06.72-.44.17-.93.25-1.49.25Zm10.28-5.42-1.54.17c-.05-.15-.12-.3-.23-.44-.1-.13-.25-.24-.43-.33-.18-.08-.4-.12-.66-.12-.36 0-.65.07-.89.22-.24.16-.35.35-.35.6 0 .2.07.38.23.5.16.14.42.24.78.33l1.23.26a3 3 0 0 1 1.5.7c.34.31.51.73.51 1.24 0 .45-.13.85-.4 1.2-.25.34-.61.6-1.07.8a4 4 0 0 1-1.59.29c-.88 0-1.58-.18-2.12-.55a2.21 2.21 0 0 1-.96-1.55l1.65-.16c.08.33.24.57.48.74.24.16.56.25.95.25.4 0 .72-.09.96-.25.25-.17.37-.37.37-.61 0-.2-.08-.38-.24-.51-.15-.14-.4-.24-.73-.31l-1.22-.26a2.91 2.91 0 0 1-1.53-.72 1.8 1.8 0 0 1-.49-1.3c0-.44.12-.82.36-1.15.25-.32.59-.58 1.03-.75.44-.18.94-.27 1.51-.27.84 0 1.5.17 1.99.53.48.36.78.84.9 1.45Zm5.13-1.9v1.32h-4.13v-1.31h4.13Zm-3.1-1.71h1.68v6.73c0 .23.04.4.1.53.08.11.17.2.29.24.11.04.24.06.38.06a1.65 1.65 0 0 0 .5-.06l.28 1.32a3.87 3.87 0 0 1-1 .17c-.42.01-.8-.05-1.14-.2-.34-.14-.6-.36-.8-.66-.2-.3-.3-.67-.3-1.12v-7.01Zm7.85 8.89v-9.56h1.69V41h.07c.08-.17.2-.36.37-.55.15-.2.37-.37.64-.51a2.2 2.2 0 0 1 1.04-.21 2.73 2.73 0 0 1 2.56 1.67c.27.54.4 1.22.4 2.01a4.7 4.7 0 0 1-.39 2.01c-.26.55-.61.97-1.06 1.26-.44.3-.94.44-1.5.44-.42 0-.76-.07-1.03-.2a2.28 2.28 0 0 1-1.03-1.06h-.1V47h-1.66Zm1.65-3.59c0 .47.07.87.2 1.22s.33.62.57.82c.26.2.56.29.92.29.37 0 .69-.1.94-.3.25-.2.44-.48.57-.83.13-.35.2-.75.2-1.2 0-.44-.07-.84-.2-1.18a1.78 1.78 0 0 0-.57-.81 1.5 1.5 0 0 0-.94-.3c-.36 0-.67.1-.92.29-.25.19-.44.45-.57.8-.13.34-.2.74-.2 1.2Zm6.55 3.59v-7.17h1.64v1.2h.08a1.8 1.8 0 0 1 1.77-1.3 3.9 3.9 0 0 1 .6.04v1.56a3.15 3.15 0 0 0-.78-.1c-.3 0-.59.07-.83.2a1.47 1.47 0 0 0-.78 1.35V47h-1.7Zm8.1.14a3.7 3.7 0 0 1-1.87-.45c-.52-.3-.92-.73-1.2-1.28a4.29 4.29 0 0 1-.42-1.95c0-.74.14-1.39.42-1.95a3.18 3.18 0 0 1 2.98-1.77c.44 0 .86.07 1.25.21.4.14.74.36 1.05.65.3.3.54.68.71 1.13.18.46.27 1 .27 1.63v.52h-5.88v-1.14h4.26c0-.33-.08-.61-.21-.87a1.53 1.53 0 0 0-.58-.6 1.62 1.62 0 0 0-.85-.22c-.34 0-.65.09-.9.25a1.78 1.78 0 0 0-.84 1.54v1c0 .41.08.77.23 1.07.15.3.36.52.64.68.27.16.6.23.96.23a2 2 0 0 0 .67-.1c.2-.07.37-.18.52-.31.14-.14.25-.3.33-.51l1.58.18c-.1.41-.3.78-.57 1.09-.28.3-.64.55-1.07.72-.43.17-.93.25-1.48.25Zm6.68 0a3 3 0 0 1-1.23-.24 2 2 0 0 1-.86-.73c-.2-.32-.31-.71-.31-1.18a1.73 1.73 0 0 1 .84-1.64c.25-.16.55-.28.87-.36a7.1 7.1 0 0 1 1.01-.18l1.02-.12c.26-.04.45-.1.57-.17.13-.08.19-.2.19-.36v-.03c0-.35-.1-.62-.32-.81-.2-.2-.5-.3-.9-.3-.41 0-.74.1-.98.28-.24.18-.4.4-.49.64l-1.58-.23a2.52 2.52 0 0 1 1.67-1.75 4.46 4.46 0 0 1 2.4-.1c.35.08.66.21.94.4.29.18.51.43.68.75.18.32.27.71.27 1.19V47h-1.63v-.99h-.06a2.06 2.06 0 0 1-1.13.98c-.27.1-.6.15-.97.15Zm.44-1.24c.34 0 .63-.06.88-.2a1.43 1.43 0 0 0 .78-1.27v-.85a.8.8 0 0 1-.27.12l-.42.1a12.59 12.59 0 0 1-.86.13c-.25.04-.48.1-.68.17-.2.08-.35.19-.47.33a.8.8 0 0 0-.17.53c0 .31.11.55.34.7.23.16.52.24.87.24Zm6.59-1.15v-2.04h.26l2.58-2.88h1.97l-3.17 3.53h-.35l-1.3 1.39ZM376.12 47v-9.56h1.7V47h-1.7Zm4.5 0-2.33-3.26 1.14-1.2 3.22 4.46h-2.02Z" fill="#333"/><rect x="289" y="65.93" width="32.87" height="16.43" rx="8.22" fill="#0F67F5"/><circle cx="313.65" cy="74.15" r="6.57" fill="#fff"/><path d="M332.74 78.15v-8.37h5.05v.9h-4.03v2.83h3.77v.9h-3.77v2.84h4.1v.9h-5.12Zm7.71-3.78v3.78h-.96v-6.28h.93v.98h.08c.15-.32.37-.57.67-.77.3-.2.69-.29 1.16-.29.43 0 .8.09 1.12.26.32.17.56.44.74.79.18.35.27.79.27 1.32v3.99h-.97v-3.92c0-.5-.13-.88-.38-1.16-.26-.27-.6-.41-1.06-.41-.3 0-.58.06-.82.2-.24.13-.43.33-.57.58-.14.26-.2.57-.2.93Zm7.62 3.92c-.4 0-.76-.07-1.09-.22a1.86 1.86 0 0 1-.77-.66c-.2-.29-.29-.64-.29-1.04 0-.36.07-.65.22-.88.14-.22.33-.4.56-.53a3 3 0 0 1 .79-.29l.87-.15.93-.11c.24-.03.41-.07.52-.14.11-.06.17-.17.17-.32v-.03c0-.4-.11-.72-.33-.94-.22-.23-.55-.34-1-.34-.46 0-.82.1-1.08.3-.26.2-.44.42-.55.65l-.92-.33a2.2 2.2 0 0 1 1.56-1.34 3.73 3.73 0 0 1 1.65-.06c.27.05.52.15.77.3.25.14.45.36.62.66.16.3.24.7.24 1.2v4.13h-.96v-.85h-.05a1.9 1.9 0 0 1-.94.83c-.25.11-.56.16-.93.16Zm.14-.86c.38 0 .7-.08.97-.23a1.53 1.53 0 0 0 .8-1.32v-.89c-.04.05-.13.1-.27.14a4.52 4.52 0 0 1-1 .17l-.4.05a4.5 4.5 0 0 0-.7.16c-.22.07-.4.18-.53.33a.83.83 0 0 0-.2.58c0 .33.13.58.38.76.25.16.57.25.95.25Zm4.62.72v-8.37h.97v3.09h.08l.3-.42c.12-.17.3-.32.54-.46.24-.13.56-.2.97-.2a2.5 2.5 0 0 1 2.34 1.52 4 4 0 0 1 .34 1.72c0 .66-.11 1.24-.34 1.72a2.46 2.46 0 0 1-2.32 1.52 2 2 0 0 1-.97-.2 1.8 1.8 0 0 1-.56-.45 6.49 6.49 0 0 1-.3-.44h-.12v.97h-.93Zm.95-3.14c0 .47.07.9.2 1.25.15.36.35.65.62.85.26.2.59.3.98.3.4 0 .74-.1 1-.32.28-.21.48-.5.62-.86.14-.37.2-.77.2-1.22 0-.44-.06-.84-.2-1.2a1.85 1.85 0 0 0-.6-.84 1.6 1.6 0 0 0-1.02-.31 1.6 1.6 0 0 0-1.6 1.12c-.13.35-.2.76-.2 1.23Zm6.07-5.23h.96v6.73c0 .3.03.52.1.64.07.13.21.19.42.18a1.87 1.87 0 0 0 .41-.06l.2.83a2.52 2.52 0 0 1-.72.1c-.46 0-.8-.13-1.03-.38a1.5 1.5 0 0 1-.34-1.05v-6.99Zm5.6 8.5c-.6 0-1.12-.14-1.56-.4a2.7 2.7 0 0 1-1.01-1.13 3.85 3.85 0 0 1-.35-1.7c0-.63.12-1.2.35-1.7a2.65 2.65 0 0 1 2.48-1.57c.32.01.65.07.96.17a2.39 2.39 0 0 1 1.5 1.5c.16.4.23.9.23 1.48v.4h-4.84v-.83h3.86c0-.35-.07-.67-.21-.94a1.6 1.6 0 0 0-1.5-.9c-.39 0-.72.1-1 .28-.28.2-.5.44-.64.74-.15.3-.23.62-.23.97v.56c0 .47.08.87.25 1.2.16.33.4.58.69.75a2 2 0 0 0 1.02.25c.26 0 .49-.03.69-.1.2-.08.39-.19.54-.33.14-.15.26-.33.34-.55l.93.26a2.1 2.1 0 0 1-1.35 1.39c-.34.13-.72.2-1.15.2Z" fill="#1F1F1F"/></svg>
